cla_frontend/assets-src/images/icons/phone.svg

<?xml version="1.0" encoding="UTF-8" standalone="no"?>
<svg width="16px" height="16px" viewBox="0 0 16 16" version="1.1" xmlns="http://www.w3.org/2000/svg" xmlns:xlink="http://www.w3.org/1999/xlink" xmlns:sketch="http://www.bohemiancoding.com/sketch/ns">
    <!-- Generator: Sketch 3.0.2 (7799) - http://www.bohemiancoding.com/sketch -->
    <title>Slice 4</title>
    <description>Created with Sketch.</description>
    <defs></defs>
    <g id="Page-1" stroke="none" stroke-width="1" fill="none" fill-rule="evenodd" sketch:type="MSPage">
        <path d="M8.12929564,12.7705543 C7.67589404,12.8583107 6.97385286,11.8491117 5.70140321,10.5620173 C4.15106226,9.01165361 3.68303481,8.57287142 3.5806538,7.90007208 C4.26806913,7.91469815 4.92623274,7.7245592 5.51126706,7.35890739 C5.70140321,7.22727273 5.87691351,7.081012 6.03779795,6.9201252 L7.50038375,5.45751793 C8.04154049,4.91635324 8.02691463,4.0241628 7.47113203,3.46837203 L5.9500428,1.94726046 L4.42895357,0.426148898 C3.87317096,-0.129641867 2.98099362,-0.14426794 2.43983688,0.396896752 L0.977251079,1.85950403 C0.816366641,2.02039083 0.670108061,2.1959037 0.538475339,2.38604265 C-0.148939987,3.45374596 -0.178191703,4.85784894 0.450720191,5.98405655 C0.699359777,7.27115095 1.62078883,9.31880114 4.47283114,12.1708853 C7.66126818,15.3593692 9.62259574,15.91516 10.6741949,15.8274035 C11.6541274,16.1491771 12.7364409,16.0175425 13.6139924,15.4617517 C13.8041285,15.330117 13.9796388,15.1838563 14.1405233,15.0229695 L15.6031091,13.5603622 C16.1442658,13.0191975 16.12964,12.1270071 15.5738574,11.5712163 L14.0527681,10.0501048 L12.5316789,8.52899321 C11.9758963,7.97320244 11.083719,7.95857637 10.5425622,8.49974106 L9.07997641,9.96234834 C8.91909197,10.1232351 8.77283339,10.298748 8.64120067,10.488887 C8.20242493,11.1763124 8.02691463,11.9807464 8.12929564,12.7705543 Z" id="Callback_icon" fill="#D8D8D8" sketch:type="MSShapeGroup"></path>
    </g>
</svg>

<?xml version="1.0" encoding="utf-8"?>
<!-- Generator: Adobe Illustrator 17.0.2, SVG Export Plug-In . SVG Version: 6.00 Build 0)  -->
<!DOCTYPE svg PUBLIC "-//W3C//DTD SVG 1.1//EN" "http://www.w3.org/Graphics/SVG/1.1/DTD/svg11.dtd">
<svg version="1.1" id="Layer_1" xmlns="http://www.w3.org/2000/svg" xmlns:xlink="http://www.w3.org/1999/xlink" x="0px" y="0px"
	 width="16px" height="16px" viewBox="0 0 16 16" enable-background="new 0 0 16 16" xml:space="preserve">
<g>
	<defs>
		<path id="SVGID_1_" d="M8.129,12.771c-0.453,0.088-1.155-0.921-2.428-2.209C4.151,9.012,3.683,8.573,3.581,7.9
			c0.687,0.015,1.346-0.176,1.931-0.541c0.19-0.132,0.366-0.278,0.527-0.439L7.5,5.458c0.541-0.541,0.527-1.433-0.029-1.989
			L5.95,1.947L4.429,0.426C3.873-0.13,2.981-0.144,2.44,0.397L0.977,1.859C0.816,2.02,0.67,2.196,0.538,2.386
			c-0.687,1.068-0.717,2.472-0.088,3.598c0.249,1.287,1.17,3.335,4.022,6.187c3.188,3.188,5.15,3.744,6.201,3.657
			c0.98,0.322,2.062,0.19,2.94-0.366c0.19-0.132,0.366-0.278,0.527-0.439l1.463-1.463c0.541-0.541,0.527-1.433-0.029-1.989
			l-1.521-1.521l-1.521-1.521c-0.556-0.556-1.448-0.57-1.989-0.029L9.08,9.962c-0.161,0.161-0.307,0.336-0.439,0.527
			C8.202,11.176,8.027,11.981,8.129,12.771z"/>
	</defs>
	<clipPath id="SVGID_2_">
		<use xlink:href="#SVGID_1_"  overflow="visible"/>
	</clipPath>
	<rect x="-5" y="-5" clip-path="url(#SVGID_2_)" fill-rule="evenodd" clip-rule="evenodd" fill="#6F777B" width="26" height="26"/>
</g>
<g>
	<defs>
		<path id="SVGID_3_" d="M-29.032,11.685c-0.4-0.231-0.268-1.453-0.383-3.26c-0.153-2.187-0.218-2.825,0.146-3.4
			c0.509,0.462,1.131,0.75,1.812,0.858c0.23,0.025,0.458,0.03,0.685,0.014l2.063-0.144c0.763-0.053,1.338-0.736,1.283-1.52
			l-0.15-2.146l-0.15-2.146c-0.055-0.784-0.719-1.38-1.482-1.327l-2.063,0.144c-0.227,0.016-0.452,0.052-0.677,0.11
			c-1.219,0.355-2.163,1.395-2.427,2.658c-0.657,1.135-1.305,3.284-1.023,7.308c0.315,4.498,1.43,6.204,2.281,6.828
			c0.528,0.886,1.432,1.496,2.459,1.653c0.23,0.025,0.458,0.03,0.685,0.014l2.063-0.144c0.763-0.053,1.338-0.736,1.283-1.52
			l-0.15-2.146l-0.15-2.146c-0.055-0.784-0.719-1.38-1.482-1.327l-2.063,0.144c-0.227,0.016-0.453,0.052-0.677,0.11
			C-27.931,10.53-28.591,11.022-29.032,11.685z"/>
	</defs>
	<clipPath id="SVGID_4_">
		<use xlink:href="#SVGID_3_"  overflow="visible"/>
	</clipPath>
	
		<rect x="-39" y="-5" transform="matrix(-0.7547 -0.6561 0.6561 -0.7547 -50.8709 -3.0199)" clip-path="url(#SVGID_4_)" fill-rule="evenodd" clip-rule="evenodd" fill="#6F777B" width="26" height="26"/>
</g>
</svg>
